X: 399
T: Kitty Nowlan
M:3/4
L:1/8
B:O'Neill's 399
N:"Tenderly."
N:"1st Setting."
N:"collected by J. O'Neill"
Z:Transcribed by Chris Falt, cfalt@trytel.com
K:Dm
Af>e|(d2A2)GB|(AF D)>(E FG)|(A2f2)(e>f)|d3(fef)|
(d2A2)(G>B)|(AF D)>(E FG)|A2d2^c/2d/2e/2c/2|d3||
(d/2e/2) fg|a3(fge)|g3(fed)|f2(f2-(3f/2e/2d/2 (3c/2A/2G/2)|A3(BAG)|
(F>E) (.F.G.A._B)|(cd).A3-.A|def2(e/2d/2^c/2e/2|d3||


